svgs/duotone/user-xmark.svg

<svg xmlns="http://www.w3.org/2000/svg" viewBox="0 0 640 512"><!--! Font Awesome Pro 6.0.0-alpha3 by @fontawesome - https://fontawesome.com License - https://fontawesome.com/license (Commercial License) --><defs><style>.fa-secondary{opacity:.4}</style></defs><path class="fa-primary" d="M577.9 223.1l47.03-47.03c9.375-9.375 9.375-24.56 0-33.94s-24.56-9.375-33.94 0L544 190.1l-47.03-47.03c-9.375-9.375-24.56-9.375-33.94 0s-9.375 24.56 0 33.94l47.03 47.03l-47.03 47.03c-9.375 9.375-9.375 24.56 0 33.94c9.373 9.373 24.56 9.381 33.94 0L544 257.9l47.03 47.03c9.373 9.373 24.56 9.381 33.94 0c9.375-9.375 9.375-24.56 0-33.94L577.9 223.1z"/><path class="fa-secondary" d="M224 256c70.7 0 128-57.31 128-128S294.7 0 224 0C153.3 0 96 57.31 96 128S153.3 256 224 256zM274.7 304H173.3C77.61 304 0 381.6 0 477.3C0 496.5 15.52 512 34.66 512h378.7C432.5 512 448 496.5 448 477.3C448 381.6 370.4 304 274.7 304z"/></svg>

<svg xmlns="http://www.w3.org/2000/svg" viewBox="0 0 640 512"><!-- Font Awesome Pro 6.0.0-alpha2 by @fontawesome - https://fontawesome.com License - https://fontawesome.com/license (Commercial License) --><defs><style>.fa-secondary{opacity:.4}</style></defs><path d="M224 256C294.695 256 352 198.691 352 128S294.695 0 224 0C153.312 0 96 57.309 96 128S153.312 256 224 256ZM274.664 304H173.336C77.609 304 0 381.602 0 477.332C0 496.477 15.523 512 34.664 512H413.336C432.477 512 448 496.477 448 477.332C448 381.602 370.398 304 274.664 304Z" class="fa-secondary"/><path d="M577.938 223.998L624.969 176.969C634.344 167.594 634.344 152.406 624.969 143.031S600.406 133.656 591.031 143.031L544 190.062L496.969 143.031C487.594 133.656 472.406 133.656 463.031 143.031S453.656 167.594 463.031 176.969L510.063 223.998L463.031 271.029C453.656 280.404 453.656 295.592 463.031 304.967C472.404 314.34 487.588 314.348 496.969 304.967L544 257.936L591.031 304.967C600.404 314.34 615.588 314.348 624.969 304.967C634.344 295.592 634.344 280.404 624.969 271.029L577.938 223.998Z" class="fa-primary"/></svg>
